images/50593177.svg

<?xml version="1.0" encoding="UTF-8"?>
<svg xmlns="http://www.w3.org/2000/svg" xmlns:xlink="http://www.w3.org/1999/xlink" width="300pt" height="300pt" viewBox="0 0 300 300" version="1.1">
<defs>
<g>
<symbol overflow="visible" id="glyph0-0">
<path style="stroke:none;" d="M 0.453125 1.59375 L 0.453125 -6.34375 L 4.953125 -6.34375 L 4.953125 1.59375 Z M 0.953125 1.09375 L 4.453125 1.09375 L 4.453125 -5.84375 L 0.953125 -5.84375 Z M 0.953125 1.09375 "/>
</symbol>
<symbol overflow="visible" id="glyph0-1">
<path style="stroke:none;" d="M 3.546875 -5.953125 C 2.898438 -5.953125 2.382812 -5.710938 2 -5.234375 C 1.625 -4.753906 1.4375 -4.101562 1.4375 -3.28125 C 1.4375 -2.445312 1.625 -1.789062 2 -1.3125 C 2.382812 -0.832031 2.898438 -0.59375 3.546875 -0.59375 C 4.191406 -0.59375 4.703125 -0.832031 5.078125 -1.3125 C 5.453125 -1.789062 5.640625 -2.445312 5.640625 -3.28125 C 5.640625 -4.101562 5.453125 -4.753906 5.078125 -5.234375 C 4.703125 -5.710938 4.191406 -5.953125 3.546875 -5.953125 Z M 3.546875 -6.6875 C 4.460938 -6.6875 5.195312 -6.375 5.75 -5.75 C 6.300781 -5.132812 6.578125 -4.3125 6.578125 -3.28125 C 6.578125 -2.238281 6.300781 -1.410156 5.75 -0.796875 C 5.195312 -0.179688 4.460938 0.125 3.546875 0.125 C 2.617188 0.125 1.878906 -0.179688 1.328125 -0.796875 C 0.773438 -1.410156 0.5 -2.238281 0.5 -3.28125 C 0.5 -4.3125 0.773438 -5.132812 1.328125 -5.75 C 1.878906 -6.375 2.617188 -6.6875 3.546875 -6.6875 Z M 3.546875 -6.6875 "/>
</symbol>
<symbol overflow="visible" id="glyph0-2">
<path style="stroke:none;" d="M 0.890625 -6.5625 L 2.078125 -6.5625 L 4.984375 -1.078125 L 4.984375 -6.5625 L 5.84375 -6.5625 L 5.84375 0 L 4.65625 0 L 1.75 -5.484375 L 1.75 0 L 0.890625 0 Z M 0.890625 -6.5625 "/>
</symbol>
<symbol overflow="visible" id="glyph0-3">
<path style="stroke:none;" d="M 0.890625 -6.5625 L 1.765625 -6.5625 L 1.765625 -3.875 L 5 -3.875 L 5 -6.5625 L 5.890625 -6.5625 L 5.890625 0 L 5 0 L 5 -3.125 L 1.765625 -3.125 L 1.765625 0 L 0.890625 0 Z M 0.890625 -6.5625 "/>
</symbol>
<symbol overflow="visible" id="glyph1-0">
<path style="stroke:none;" d="M 0.40625 1.421875 L 0.40625 -5.640625 L 4.40625 -5.640625 L 4.40625 1.421875 Z M 0.84375 0.96875 L 3.953125 0.96875 L 3.953125 -5.1875 L 0.84375 -5.1875 Z M 0.84375 0.96875 "/>
</symbol>
<symbol overflow="visible" id="glyph1-1">
<path style="stroke:none;" d="M 3.6875 -5.015625 L 3.6875 -2.84375 L 5.859375 -2.84375 L 5.859375 -2.171875 L 3.6875 -2.171875 L 3.6875 0 L 3.03125 0 L 3.03125 -2.171875 L 0.84375 -2.171875 L 0.84375 -2.84375 L 3.03125 -2.84375 L 3.03125 -5.015625 Z M 3.6875 -5.015625 "/>
</symbol>
</g>
</defs>
<g id="surface25177">
<rect x="0" y="0" width="300" height="300" style="fill:rgb(100%,100%,100%);fill-opacity:1;stroke:none;"/>
<path style="fill:none;stroke-width:1.2;stroke-linecap:butt;stroke-linejoin:miter;stroke:rgb(100%,0%,0%);stroke-opacity:1;stroke-miterlimit:10;" d="M 130.757812 171.359375 L 130.789062 160.613281 "/>
<path style="fill:none;stroke-width:1.2;stroke-linecap:butt;stroke-linejoin:miter;stroke:rgb(0%,0%,0%);stroke-opacity:1;stroke-miterlimit:10;" d="M 130.789062 160.613281 L 130.816406 149.867188 "/>
<path style="fill:none;stroke-width:1.2;stroke-linecap:butt;stroke-linejoin:miter;stroke:rgb(100%,0%,0%);stroke-opacity:1;stroke-miterlimit:10;" d="M 125.703125 171.34375 L 125.730469 160.597656 "/>
<path style="fill:none;stroke-width:1.2;stroke-linecap:butt;stroke-linejoin:miter;stroke:rgb(0%,0%,0%);stroke-opacity:1;stroke-miterlimit:10;" d="M 125.730469 160.597656 L 125.757812 149.851562 "/>
<path style=" stroke:none;fill-rule:nonzero;fill:rgb(100%,100%,100%);fill-opacity:1;" d="M 124.230469 165.851562 L 132.230469 165.851562 L 132.230469 176.851562 L 124.230469 176.851562 Z M 124.230469 165.851562 "/>
<g style="fill:rgb(100%,0%,0%);fill-opacity:1;">
  <use xlink:href="#glyph0-1" x="124.230469" y="174.514648"/>
</g>
<path style="fill:none;stroke-width:1.2;stroke-linecap:butt;stroke-linejoin:miter;stroke:rgb(0%,0%,0%);stroke-opacity:1;stroke-miterlimit:10;" d="M 128.289062 149.859375 L 118.996094 144.460938 "/>
<path style="fill:none;stroke-width:1.2;stroke-linecap:butt;stroke-linejoin:miter;stroke:rgb(0%,0%,100%);stroke-opacity:1;stroke-miterlimit:10;" d="M 118.996094 144.460938 L 109.703125 139.0625 "/>
<path style="fill:none;stroke-width:1.2;stroke-linecap:butt;stroke-linejoin:miter;stroke:rgb(0%,0%,0%);stroke-opacity:1;stroke-miterlimit:10;" d="M 128.289062 149.859375 L 146.929688 139.164062 "/>
<path style="fill:none;stroke-width:1.2;stroke-linecap:butt;stroke-linejoin:miter;stroke:rgb(0%,0%,100%);stroke-opacity:1;stroke-miterlimit:10;" d="M 109.703125 139.0625 L 100.382812 144.414062 "/>
<path style="fill:none;stroke-width:1.2;stroke-linecap:butt;stroke-linejoin:miter;stroke:rgb(0%,0%,0%);stroke-opacity:1;stroke-miterlimit:10;" d="M 100.382812 144.414062 L 91.0625 149.761719 "/>
<path style=" stroke:none;fill-rule:nonzero;fill:rgb(100%,100%,100%);fill-opacity:1;" d="M 102.703125 133.5625 L 116.703125 133.5625 L 116.703125 144.5625 L 102.703125 144.5625 Z M 102.703125 133.5625 "/>
<g style="fill:rgb(0%,0%,100%);fill-opacity:1;">
  <use xlink:href="#glyph0-2" x="102.703125" y="142.225586"/>
  <use xlink:href="#glyph0-3" x="109.680664" y="142.225586"/>
</g>
<path style="fill:none;stroke-width:1.2;stroke-linecap:butt;stroke-linejoin:miter;stroke:rgb(0%,0%,0%);stroke-opacity:1;stroke-miterlimit:10;" d="M 91.0625 149.761719 L 72.476562 138.964844 "/>
<path style="fill:none;stroke-width:1.2;stroke-linecap:butt;stroke-linejoin:miter;stroke:rgb(0%,0%,0%);stroke-opacity:1;stroke-miterlimit:10;" d="M 72.476562 138.964844 L 63.15625 144.3125 "/>
<path style="fill:none;stroke-width:1.2;stroke-linecap:butt;stroke-linejoin:miter;stroke:rgb(0%,0%,100%);stroke-opacity:1;stroke-miterlimit:10;" d="M 63.15625 144.3125 L 53.835938 149.664062 "/>
<path style="fill:none;stroke-width:1.2;stroke-linecap:butt;stroke-linejoin:miter;stroke:rgb(0%,0%,100%);stroke-opacity:1;stroke-miterlimit:10;" d="M 53.835938 149.664062 L 44.542969 144.265625 "/>
<path style="fill:none;stroke-width:1.2;stroke-linecap:butt;stroke-linejoin:miter;stroke:rgb(0%,0%,0%);stroke-opacity:1;stroke-miterlimit:10;" d="M 44.542969 144.265625 L 35.25 138.867188 "/>
<path style="fill:none;stroke-width:1.2;stroke-linecap:butt;stroke-linejoin:miter;stroke:rgb(0%,0%,100%);stroke-opacity:1;stroke-miterlimit:10;" d="M 53.835938 149.664062 L 53.804688 160.410156 "/>
<path style="fill:none;stroke-width:1.2;stroke-linecap:butt;stroke-linejoin:miter;stroke:rgb(0%,0%,0%);stroke-opacity:1;stroke-miterlimit:10;" d="M 53.804688 160.410156 L 53.777344 171.15625 "/>
<path style=" stroke:none;fill-rule:nonzero;fill:rgb(100%,100%,100%);fill-opacity:1;" d="M 43.835938 142.164062 L 64.835938 142.164062 L 64.835938 157.164062 L 43.835938 157.164062 Z M 43.835938 142.164062 "/>
<g style="fill:rgb(0%,0%,100%);fill-opacity:1;">
  <use xlink:href="#glyph0-2" x="43.835938" y="154.265625"/>
  <use xlink:href="#glyph0-3" x="50.813477" y="154.265625"/>
</g>
<g style="fill:rgb(0%,0%,100%);fill-opacity:1;">
  <use xlink:href="#glyph1-1" x="57.828125" y="149.382812"/>
</g>
<path style="fill:none;stroke-width:1.2;stroke-linecap:butt;stroke-linejoin:miter;stroke:rgb(0%,0%,0%);stroke-opacity:1;stroke-miterlimit:10;" d="M 146.929688 139.164062 L 146.988281 117.667969 "/>
<path style="fill:none;stroke-width:1.2;stroke-linecap:butt;stroke-linejoin:miter;stroke:rgb(0%,0%,0%);stroke-opacity:1;stroke-miterlimit:10;" d="M 151.992188 137.027344 L 152.039062 119.832031 "/>
<path style="fill:none;stroke-width:1.2;stroke-linecap:butt;stroke-linejoin:miter;stroke:rgb(0%,0%,0%);stroke-opacity:1;stroke-miterlimit:10;" d="M 165.515625 149.957031 L 146.929688 139.164062 "/>
<path style="fill:none;stroke-width:1.2;stroke-linecap:butt;stroke-linejoin:miter;stroke:rgb(0%,0%,0%);stroke-opacity:1;stroke-miterlimit:10;" d="M 146.988281 117.667969 L 165.628906 106.972656 "/>
<path style="fill:none;stroke-width:1.2;stroke-linecap:butt;stroke-linejoin:miter;stroke:rgb(0%,0%,0%);stroke-opacity:1;stroke-miterlimit:10;" d="M 165.628906 106.972656 L 184.214844 117.769531 "/>
<path style="fill:none;stroke-width:1.2;stroke-linecap:butt;stroke-linejoin:miter;stroke:rgb(0%,0%,0%);stroke-opacity:1;stroke-miterlimit:10;" d="M 164.945312 112.425781 L 179.8125 121.0625 "/>
<path style="fill:none;stroke-width:1.2;stroke-linecap:butt;stroke-linejoin:miter;stroke:rgb(0%,0%,0%);stroke-opacity:1;stroke-miterlimit:10;" d="M 184.214844 117.769531 L 184.15625 139.261719 "/>
<path style="fill:none;stroke-width:1.2;stroke-linecap:butt;stroke-linejoin:miter;stroke:rgb(0%,0%,0%);stroke-opacity:1;stroke-miterlimit:10;" d="M 184.214844 117.769531 L 202.855469 107.070312 "/>
<path style="fill:none;stroke-width:1.2;stroke-linecap:butt;stroke-linejoin:miter;stroke:rgb(0%,0%,0%);stroke-opacity:1;stroke-miterlimit:10;" d="M 184.15625 139.261719 L 165.515625 149.957031 "/>
<path style="fill:none;stroke-width:1.2;stroke-linecap:butt;stroke-linejoin:miter;stroke:rgb(0%,0%,0%);stroke-opacity:1;stroke-miterlimit:10;" d="M 179.773438 135.945312 L 164.863281 144.503906 "/>
<path style="fill:none;stroke-width:1.2;stroke-linecap:butt;stroke-linejoin:miter;stroke:rgb(0%,0%,0%);stroke-opacity:1;stroke-miterlimit:10;" d="M 202.855469 107.070312 L 212.660156 111.46875 "/>
<path style="fill:none;stroke-width:1.2;stroke-linecap:butt;stroke-linejoin:miter;stroke:rgb(0%,0%,100%);stroke-opacity:1;stroke-miterlimit:10;" d="M 212.660156 111.46875 L 222.464844 115.867188 "/>
<path style="fill:none;stroke-width:1.2;stroke-linecap:butt;stroke-linejoin:miter;stroke:rgb(0%,0%,0%);stroke-opacity:1;stroke-miterlimit:10;" d="M 205.15625 85.703125 L 202.855469 107.070312 "/>
<path style="fill:none;stroke-width:1.2;stroke-linecap:butt;stroke-linejoin:miter;stroke:rgb(0%,0%,0%);stroke-opacity:1;stroke-miterlimit:10;" d="M 209.957031 88.382812 L 208.113281 105.476562 "/>
<path style="fill:none;stroke-width:1.2;stroke-linecap:butt;stroke-linejoin:miter;stroke:rgb(0%,0%,100%);stroke-opacity:1;stroke-miterlimit:10;" d="M 222.464844 115.867188 L 229.054688 136.324219 "/>
<path style="fill:none;stroke-width:1.2;stroke-linecap:butt;stroke-linejoin:miter;stroke:rgb(0%,0%,0%);stroke-opacity:1;stroke-miterlimit:10;" d="M 236.890625 99.929688 L 229.679688 107.898438 "/>
<path style="fill:none;stroke-width:1.2;stroke-linecap:butt;stroke-linejoin:miter;stroke:rgb(0%,0%,100%);stroke-opacity:1;stroke-miterlimit:10;" d="M 229.679688 107.898438 L 222.464844 115.867188 "/>
<path style=" stroke:none;fill-rule:nonzero;fill:rgb(100%,100%,100%);fill-opacity:1;" d="M 219.464844 110.367188 L 226.464844 110.367188 L 226.464844 121.367188 L 219.464844 121.367188 Z M 219.464844 110.367188 "/>
<g style="fill:rgb(0%,0%,100%);fill-opacity:1;">
  <use xlink:href="#glyph0-2" x="219.464844" y="119.030273"/>
</g>
<path style="fill:none;stroke-width:1.2;stroke-linecap:butt;stroke-linejoin:miter;stroke:rgb(0%,0%,100%);stroke-opacity:1;stroke-miterlimit:10;" d="M 229.054688 136.324219 L 239.558594 138.585938 "/>
<path style="fill:none;stroke-width:1.2;stroke-linecap:butt;stroke-linejoin:miter;stroke:rgb(0%,0%,0%);stroke-opacity:1;stroke-miterlimit:10;" d="M 239.558594 138.585938 L 250.066406 140.847656 "/>
<path style="fill:none;stroke-width:1.2;stroke-linecap:butt;stroke-linejoin:miter;stroke:rgb(0%,0%,100%);stroke-opacity:1;stroke-miterlimit:10;" d="M 232.21875 131.832031 L 240.625 133.640625 "/>
<path style="fill:none;stroke-width:1.2;stroke-linecap:butt;stroke-linejoin:miter;stroke:rgb(0%,0%,0%);stroke-opacity:1;stroke-miterlimit:10;" d="M 240.625 133.640625 L 249.027344 135.453125 "/>
<path style=" stroke:none;fill-rule:nonzero;fill:rgb(100%,100%,100%);fill-opacity:1;" d="M 219.054688 128.824219 L 240.054688 128.824219 L 240.054688 143.824219 L 219.054688 143.824219 Z M 219.054688 128.824219 "/>
<g style="fill:rgb(0%,0%,100%);fill-opacity:1;">
  <use xlink:href="#glyph0-2" x="219.054688" y="140.925781"/>
  <use xlink:href="#glyph0-3" x="226.032227" y="140.925781"/>
</g>
<g style="fill:rgb(0%,0%,100%);fill-opacity:1;">
  <use xlink:href="#glyph1-1" x="233.046875" y="136.042969"/>
</g>
<path style="fill:none;stroke-width:1.2;stroke-linecap:butt;stroke-linejoin:miter;stroke:rgb(0%,0%,0%);stroke-opacity:1;stroke-miterlimit:10;" d="M 250.066406 140.847656 L 253.359375 151.078125 "/>
<path style="fill:none;stroke-width:1.2;stroke-linecap:butt;stroke-linejoin:miter;stroke:rgb(0%,0%,100%);stroke-opacity:1;stroke-miterlimit:10;" d="M 253.359375 151.078125 L 256.652344 161.308594 "/>
<path style="fill:none;stroke-width:1.2;stroke-linecap:butt;stroke-linejoin:miter;stroke:rgb(0%,0%,0%);stroke-opacity:1;stroke-miterlimit:10;" d="M 250.066406 140.847656 L 264.488281 124.914062 "/>
<path style="fill:none;stroke-width:1.2;stroke-linecap:butt;stroke-linejoin:miter;stroke:rgb(0%,0%,100%);stroke-opacity:1;stroke-miterlimit:10;" d="M 256.652344 161.308594 L 249.441406 169.273438 "/>
<path style="fill:none;stroke-width:1.2;stroke-linecap:butt;stroke-linejoin:miter;stroke:rgb(0%,0%,0%);stroke-opacity:1;stroke-miterlimit:10;" d="M 249.441406 169.273438 L 242.226562 177.242188 "/>
<path style=" stroke:none;fill-rule:nonzero;fill:rgb(100%,100%,100%);fill-opacity:1;" d="M 249.652344 155.808594 L 263.652344 155.808594 L 263.652344 166.808594 L 249.652344 166.808594 Z M 249.652344 155.808594 "/>
<g style="fill:rgb(0%,0%,100%);fill-opacity:1;">
  <use xlink:href="#glyph0-2" x="249.652344" y="164.47168"/>
  <use xlink:href="#glyph0-3" x="256.629883" y="164.47168"/>
</g>
<path style="fill:none;stroke-width:1.2;stroke-linecap:butt;stroke-linejoin:miter;stroke:rgb(0%,0%,0%);stroke-opacity:1;stroke-miterlimit:10;" d="M 242.226562 177.242188 L 248.816406 197.699219 "/>
<path style="fill:none;stroke-width:1.2;stroke-linecap:butt;stroke-linejoin:miter;stroke:rgb(0%,0%,0%);stroke-opacity:1;stroke-miterlimit:10;" d="M 248.816406 197.699219 L 264.75 212.121094 "/>
<path style="fill:none;stroke-width:1.2;stroke-linecap:butt;stroke-linejoin:miter;stroke:rgb(0%,0%,0%);stroke-opacity:1;stroke-miterlimit:10;" d="M 244.292969 218.710938 L 248.816406 197.699219 "/>
<path style="fill:none;stroke-width:1.2;stroke-linecap:butt;stroke-linejoin:miter;stroke:rgb(0%,0%,0%);stroke-opacity:1;stroke-miterlimit:10;" d="M 264.75 212.121094 L 244.292969 218.710938 "/>
<path style="fill:none;stroke-width:1.2;stroke-linecap:butt;stroke-linejoin:miter;stroke:rgb(0%,0%,0%);stroke-opacity:1;stroke-miterlimit:10;" d="M 264.488281 124.914062 L 257.902344 104.457031 "/>
<path style="fill:none;stroke-width:1.2;stroke-linecap:butt;stroke-linejoin:miter;stroke:rgb(0%,0%,0%);stroke-opacity:1;stroke-miterlimit:10;" d="M 259.015625 124.417969 L 253.746094 108.050781 "/>
<path style="fill:none;stroke-width:1.2;stroke-linecap:butt;stroke-linejoin:miter;stroke:rgb(0%,0%,0%);stroke-opacity:1;stroke-miterlimit:10;" d="M 257.902344 104.457031 L 236.890625 99.929688 "/>
<path style="fill:none;stroke-width:1.2;stroke-linecap:butt;stroke-linejoin:miter;stroke:rgb(0%,0%,0%);stroke-opacity:1;stroke-miterlimit:10;" d="M 236.890625 99.929688 L 231.542969 90.609375 "/>
<path style="fill:none;stroke-width:1.2;stroke-linecap:butt;stroke-linejoin:miter;stroke:rgb(0%,0%,100%);stroke-opacity:1;stroke-miterlimit:10;" d="M 231.542969 90.609375 L 226.191406 81.289062 "/>
<path style="fill:none;stroke-width:1.2;stroke-linecap:butt;stroke-linejoin:miter;stroke:rgb(0%,0%,0%);stroke-opacity:1;stroke-miterlimit:10;" d="M 231.433594 100.585938 L 227.15625 93.128906 "/>
<path style="fill:none;stroke-width:1.2;stroke-linecap:butt;stroke-linejoin:miter;stroke:rgb(0%,0%,100%);stroke-opacity:1;stroke-miterlimit:10;" d="M 227.15625 93.128906 L 222.875 85.671875 "/>
<path style="fill:none;stroke-width:1.2;stroke-linecap:butt;stroke-linejoin:miter;stroke:rgb(0%,0%,100%);stroke-opacity:1;stroke-miterlimit:10;" d="M 226.191406 81.289062 L 215.675781 83.496094 "/>
<path style="fill:none;stroke-width:1.2;stroke-linecap:butt;stroke-linejoin:miter;stroke:rgb(0%,0%,0%);stroke-opacity:1;stroke-miterlimit:10;" d="M 215.675781 83.496094 L 205.15625 85.703125 "/>
<path style=" stroke:none;fill-rule:nonzero;fill:rgb(100%,100%,100%);fill-opacity:1;" d="M 223.191406 75.789062 L 230.191406 75.789062 L 230.191406 86.789062 L 223.191406 86.789062 Z M 223.191406 75.789062 "/>
<g style="fill:rgb(0%,0%,100%);fill-opacity:1;">
  <use xlink:href="#glyph0-2" x="223.191406" y="84.452148"/>
</g>
</g>
</svg>

<svg xmlns="http://www.w3.org/2000/svg" xmlns:xlink="http://www.w3.org/1999/xlink" width="300pt" height="300pt" viewBox="0 0 300 300"><defs><symbol overflow="visible"><path d="M.453 1.594v-7.938h4.5v7.938zm.5-.5h3.5v-6.938h-3.5zm0 0"/></symbol><symbol overflow="visible" id="a"><path d="M3.547-5.953c-.65 0-1.164.242-1.547.72-.375.48-.563 1.13-.563 1.952 0 .835.188 1.49.563 1.967.383.48.898.72 1.547.72.644 0 1.156-.24 1.53-.72.376-.476.564-1.132.564-1.968 0-.822-.187-1.474-.562-1.954-.375-.477-.887-.72-1.53-.72zm0-.734c.914 0 1.648.312 2.203.937.55.617.828 1.438.828 2.47 0 1.042-.277 1.87-.828 2.483-.555.617-1.29.922-2.203.922-.93 0-1.668-.305-2.22-.922C.774-1.41.5-2.237.5-3.28c0-1.033.273-1.853.828-2.47.55-.625 1.29-.938 2.22-.938zm0 0"/></symbol><symbol overflow="visible" id="b"><path d="M.89-6.563H2.08l2.906 5.485v-5.484h.86V0H4.656L1.75-5.484V0H.89zm0 0"/></symbol><symbol overflow="visible" id="c"><path d="M.89-6.563h.876v2.688H5v-2.688h.89V0H5v-3.125H1.766V0H.89zm0 0"/></symbol><symbol overflow="visible"><path d="M.406 1.422V-5.64h4V1.42zM.844.97h3.11v-6.157H.843zm0 0"/></symbol><symbol overflow="visible" id="d"><path d="M3.688-5.016v2.172h2.17v.672H3.69V0H3.03v-2.172H.845v-.672H3.03v-2.172zm0 0"/></symbol></defs><g><path fill="#fff" d="M0 0h300v300H0z"/><path d="M130.758 171.36l.03-10.747" stroke-width="1.2" stroke="#f00" stroke-miterlimit="10" fill="none"/><path d="M130.79 160.613l.026-10.746" stroke-width="1.2" stroke="#000" stroke-miterlimit="10" fill="none"/><path d="M125.703 171.344l.027-10.746" stroke-width="1.2" stroke="#f00" stroke-miterlimit="10" fill="none"/><path d="M125.73 160.598l.028-10.746" stroke-width="1.2" stroke="#000" stroke-miterlimit="10" fill="none"/><path d="M124.23 165.852h8v11h-8zm0 0" fill="#fff"/><use xlink:href="#a" x="124.23" y="174.515" fill="#f00"/><path d="M128.29 149.86l-9.294-5.4" stroke-width="1.2" stroke="#000" stroke-miterlimit="10" fill="none"/><path d="M118.996 144.46l-9.293-5.398" stroke-width="1.2" stroke="#00f" stroke-miterlimit="10" fill="none"/><path d="M128.29 149.86l18.64-10.696" stroke-width="1.2" stroke="#000" stroke-miterlimit="10" fill="none"/><path d="M109.703 139.063l-9.32 5.35" stroke-width="1.2" stroke="#00f" stroke-miterlimit="10" fill="none"/><path d="M100.383 144.414l-9.32 5.348" stroke-width="1.2" stroke="#000" stroke-miterlimit="10" fill="none"/><path d="M102.703 133.563h14v11h-14zm0 0" fill="#fff"/><g fill="#00f"><use xlink:href="#b" x="102.703" y="142.226"/><use xlink:href="#c" x="109.681" y="142.226"/></g><path d="M91.063 149.762l-18.586-10.797M72.477 138.965l-9.32 5.347" stroke-width="1.2" stroke="#000" stroke-miterlimit="10" fill="none"/><path d="M63.156 144.313l-9.32 5.35M53.836 149.664l-9.293-5.398" stroke-width="1.2" stroke="#00f" stroke-miterlimit="10" fill="none"/><path d="M44.543 144.266l-9.293-5.4" stroke-width="1.2" stroke="#000" stroke-miterlimit="10" fill="none"/><path d="M53.836 149.664l-.03 10.746" stroke-width="1.2" stroke="#00f" stroke-miterlimit="10" fill="none"/><path d="M53.805 160.41l-.028 10.746" stroke-width="1.2" stroke="#000" stroke-miterlimit="10" fill="none"/><path d="M43.836 142.164h21v15h-21zm0 0" fill="#fff"/><g fill="#00f"><use xlink:href="#b" x="43.836" y="154.266"/><use xlink:href="#c" x="50.813" y="154.266"/></g><use xlink:href="#d" x="57.828" y="149.383" fill="#00f"/><path d="M146.93 139.164l.058-21.496M151.992 137.027l.047-17.195M165.516 149.957l-18.586-10.793M146.988 117.668l18.64-10.695M165.63 106.973l18.585 10.797M164.945 112.426l14.868 8.636M184.215 117.77l-.06 21.492M184.215 117.77l18.64-10.7M184.156 139.262l-18.64 10.695M179.773 135.945l-14.91 8.56M202.855 107.07l9.805 4.4" stroke-width="1.2" stroke="#000" stroke-miterlimit="10" fill="none"/><path d="M212.66 111.47l9.805 4.397" stroke-width="1.2" stroke="#00f" stroke-miterlimit="10" fill="none"/><path d="M205.156 85.703l-2.3 21.367M209.957 88.383l-1.844 17.094" stroke-width="1.2" stroke="#000" stroke-miterlimit="10" fill="none"/><path d="M222.465 115.867l6.59 20.457" stroke-width="1.2" stroke="#00f" stroke-miterlimit="10" fill="none"/><path d="M236.89 99.93l-7.21 7.968" stroke-width="1.2" stroke="#000" stroke-miterlimit="10" fill="none"/><path d="M229.68 107.898l-7.215 7.97" stroke-width="1.2" stroke="#00f" stroke-miterlimit="10" fill="none"/><path d="M219.465 110.367h7v11h-7zm0 0" fill="#fff"/><use xlink:href="#b" x="219.465" y="119.03" fill="#00f"/><path d="M229.055 136.324l10.504 2.262" stroke-width="1.2" stroke="#00f" stroke-miterlimit="10" fill="none"/><path d="M239.56 138.586l10.506 2.262" stroke-width="1.2" stroke="#000" stroke-miterlimit="10" fill="none"/><path d="M232.22 131.832l8.405 1.81" stroke-width="1.2" stroke="#00f" stroke-miterlimit="10" fill="none"/><path d="M240.625 133.64l8.402 1.813" stroke-width="1.2" stroke="#000" stroke-miterlimit="10" fill="none"/><path d="M219.055 128.824h21v15h-21zm0 0" fill="#fff"/><g fill="#00f"><use xlink:href="#b" x="219.055" y="140.926"/><use xlink:href="#c" x="226.032" y="140.926"/></g><use xlink:href="#d" x="233.047" y="136.043" fill="#00f"/><path d="M250.066 140.848l3.293 10.23" stroke-width="1.2" stroke="#000" stroke-miterlimit="10" fill="none"/><path d="M253.36 151.078l3.292 10.23" stroke-width="1.2" stroke="#00f" stroke-miterlimit="10" fill="none"/><path d="M250.066 140.848l14.422-15.934" stroke-width="1.2" stroke="#000" stroke-miterlimit="10" fill="none"/><path d="M256.652 161.31l-7.21 7.963" stroke-width="1.2" stroke="#00f" stroke-miterlimit="10" fill="none"/><path d="M249.44 169.273l-7.213 7.97" stroke-width="1.2" stroke="#000" stroke-miterlimit="10" fill="none"/><path d="M249.652 155.81h14v11h-14zm0 0" fill="#fff"/><g fill="#00f"><use xlink:href="#b" x="249.652" y="164.472"/><use xlink:href="#c" x="256.63" y="164.472"/></g><path d="M242.227 177.242l6.59 20.457M248.816 197.7l15.934 14.42M244.293 218.71l4.523-21.01M264.75 212.12l-20.457 6.59M264.488 124.914l-6.586-20.457M259.016 124.418l-5.27-16.367M257.902 104.457l-21.01-4.527M236.89 99.93l-5.347-9.32" stroke-width="1.2" stroke="#000" stroke-miterlimit="10" fill="none"/><path d="M231.543 90.61l-5.352-9.32" stroke-width="1.2" stroke="#00f" stroke-miterlimit="10" fill="none"/><path d="M231.434 100.586l-4.278-7.457" stroke-width="1.2" stroke="#000" stroke-miterlimit="10" fill="none"/><path d="M227.156 93.13l-4.28-7.458M226.19 81.29l-10.514 2.206" stroke-width="1.2" stroke="#00f" stroke-miterlimit="10" fill="none"/><path d="M215.676 83.496l-10.52 2.207" stroke-width="1.2" stroke="#000" stroke-miterlimit="10" fill="none"/><path d="M223.19 75.79h7v11h-7zm0 0" fill="#fff"/><use xlink:href="#b" x="223.191" y="84.452" fill="#00f"/></g></svg>
